X: 11815
M: 3/4
L: 1/8
K: G
g2z2g2 | agfed2 | e2z2e2 | gdcBAB |
c2z2e2 | d^cdB=cA | G2BGAF | G3- "Fin."G2 H|]\
c2G2c2 | e2gfag | =f2d2B2 | c2BGAB |\
c2z2 (3(Bcd) | c2z2 (3(=fga) | g2^f2a2 | gedcB"^D.C."A |]


